X: 1
T:At Va'ani
M:4/4
L:1/8
S:Deborah Jones/Vancouver IFD 1982
Z:Seymour.Shlien@crc.doc.ca
P: in D/Bm:
K:D
|: "D" A, D2 E DEFG | A8 | "Bm" BFFE F2 "Em" FA | "F#" F8 |
%%sep
"D" A, D2 E DEFG | A8 |1 "C" GED=C "Bb" _B,2 DE | "D" D8 :|2 "C" GEEG "F#m" F2 FA | "Bm" B8 |
"Bm" F2 BA B2 F2 |"E" ^GAFE "F#m" F2 F2 | "C" =GAFE "D" D2 DF | "E" E8 |
"Bm" FB BA B2 "^C" c2 | "F#m" A^G A2-A2 "B7" B2 | "E" ^GAFE DEGF | "F#" F8 |]
P: in C/Am:
K:C
|: "C" G c2 d cdef | g8 | "Am" aeed e2 "Dm" eg | "E" e8 |
"C" G c2 d cdef | g8 |1 "Bb" fdc_B "Ab" _A2 cd | "C" c8 :|2 "Bb" fddf "Em" e2 eg | "Am" a8 |
"Am" e2 ag a2 e2 |"D" ^fged "Em" e2 e2 | "Bb" =fged "C" c2 ce | "D" d8 |
"Am" ea ag a2 "=B" b2 | "Em" g^f g2-g2 "A7" a2 | "D" ^fged cdfe | "E" e8 |]
